X: 39413
T: Tappaghyn Jiargey
R: waltz
M: 3/4
K: Gmajor
B>A|G2 E2 E2|E2 G2 B>A|G2 E2 E2|G4 A>B|
c2 c2 d>c|B>A G>F E>D|E2 e2 e2|d4 Bd|
d>c B/c/d e<d|d>c B/c/d e<d|B>e e2 d>B|
G>B dB Gz|E2 ee E2|E2 AA G2||

